X:1
T:24 Arie Antiche
T:Alma del core
T:Antonio Caldara (1670-1736) Alessandro Parisotti (1853-1913)
T:(24 Arie Antiche)
T:Alma del core
T:Low voices
T:Creative Commons copyright waiver (CC0 1.0 Universal)
T:Creative Commons copyright waiver (CC0 1.0 Universal)
T:Creative Commons copyright waiver (CC0 1.0 Universal)
T:Creative Commons copyright waiver (CC0 1.0 Universal)
T:Creative Commons copyright waiver (CC0 1.0 Universal)
T:Creative Commons copyright waiver (CC0 1.0 Universal)
C:Antonio Caldara (1670-1736)
Z:Creative Commons copyright waiver (CC0 1.0 Universal)
%%score 1 { ( 2 4 5 ) | ( 3 6 ) }
L:1/8
Q:1/4=124
M:3/4
K:E
V:1 treble nm="Voice"
V:2 treble nm="Piano"
V:4 treble 
V:5 treble 
V:3 bass 
V:6 bass 
V:1
"^Tempo di Minuetto" z6 | z6 | z6 | z6 | z6 | z6 | z6 | z6 | z6 | z6 | z6 | z6 | z6 | z6 | z6 | %15
w: |||||||||||||||
 z6 |!mf! B2 G2 A2 | (BAGF) E2 | c2 (AB) (GA) | (FE) F4 | z6 | z6 |!p! B2 G2 A2 | (BAGF) E2 | %24
w: |Al- ma del|co- * * * re,|spir- to _ dell' *|al- * ma!|||Al- ma del|co- * * * re,|
 c2 (AB) (GA) | (FE) F4 |!mf! F2 G2 A2 | B3 (AGF) | (GA) (G2 F) E |!f! E6 | %30
w: spir- to _ dell' *|al- * ma,,|sem- pre co-|stan- te _ _|t'a- * do- * re-|rò,|
!mp! G2[Q:1/4=118] (AG) (FE) | F2!<(! (G^ABG | ^AB) A3 B!<)! | B4 z2 |!pp! G2 (AG) (FE) | %35
w: t'a do- * re- *|rò, t'a * * *|* * do- re-|rò,|t'a do- * re- *|
 F2!<(! (G^ABG | ^AB) TA3 B!<)! | B6 |[Q:1/4=124] z6 | z6 | B2 G2 A2 | (BAGF) E2 | c2 (AB) (GA) | %43
w: rò, t'a * * *|* * do- re-|rò!|||Al- ma del|co- * * * re,|spir- to _ dell' _|
 (FE) F4 |!<(! F2 G2 A2 | B3 (AGF) |[Q:1/4=118] (GA) (G2 PF) E!<)! |!f! E6 |!p! F2 G2 A2 | %49
w: al- * ma,|sem- pre co-|stan- te _ _|t'a- * do- * re-|rò,|sem- pre co-|
 B3 (AGF) |!<(! (GA) (G2 PF) E!<)! | E6 |[Q:1/4=124] z6 | z6 |"_rit."[Q:1/4=114] z6[Q:1/4=110] | %55
w: stan- te _ _|t'a- * do- * re-|rò!||||
 !fermata!z6 ||[Q:1/4=124]"^a tempo"!p!!<(! G2 B2!<)! ^A2 | (G^^F) G4 |!mf! ^A2!<(! c2!<)! B2 | %59
w: |Sa- rò con-|ten- * to|nel mio tor-|
 (^AG) A4 |!<(! ^A2 B2 c2!<)! | d3 (cB^A) |[Q:1/4=114]!>(! (G^A) (G2 ^^F) G | G6!>)! | %64
w: men- * to,|se quel bel|lab- bro _ _|ba- * ciar _ po-|trò,|
!pp!!<(! A2 A2!<)! A2 |!>(! A4!>)! G2 |!p!!<(! c2 c2!<)! c2 | d3 (cB^A) | %68
w: se quel bel|lab- bro,|se quel bel|lab- bro _ _|
!>(! (G^A) (TG2 ^^F) G!>)! | G6 ||[Q:1/4=124] z6 | z6 |!mf! B2 G2 A2 | (BAGF) E2 | c2 (AB) (GA) | %75
w: ba- * ciar _ po-|trò.|||Al- ma del|co- * * * re,|spir- to _ dell' *|
 (FE) F4 |!<(! F2 G2 A2 | B3 (AGF) |[Q:1/4=118] (GA) (TG2 F)E!<)! |!f! E6 |!mp! G2 (AG) (FE) | %81
w: al- * ma,|sem- pre co-|stan- te _ _|t'a- * do- * re-|rò,|t'a- do- * re- *|
 F2!<(! (G^ABG | ^AB) A3 B!<)! | B4 z2 |!pp! G2 (AG) (FE) | F2!<(! (G^ABG | ^AB) TA3 B!<)! | B6 | %88
w: rò, t'a- * * *|* * do- re-|rò,|t'a- do- * re- *|rò, t'a- * * *|* * do- re-|rò!|
!mf![Q:1/4=124] B2 G2 A2 | (BAGF) E2 | c2 (AB) (GA) | (FE) F4 |!<(! F2 G2 A2 | B3 (AGF) | %94
w: Al- ma del|co- * * * re,|spir- to _ dell' *|al- * ma,|sem- pre co-|stan- te _ _|
 (GA) (G2 F) E!<)! |!f! E6 |!p! F2 G2 A2 | B3 (AGF) |[Q:1/4=118]!<(! (GA) (TG2 F) E!<)! | E6 | %100
w: t'a- * do- * re-|rò,|sem- pre co-|stan- te _ _|t'a- * do- * re-|rò.|
[Q:1/4=124] z6 | z6 | z6 | z6 | z6 | z6 |"_poco rit."[Q:1/4=114] z6 | z6 |] %108
w: ||||||||
V:2
!f! ([B,GB]2 [B,EG]2 [A,DA]2 | ([GB][FA]) ([EG][DF]) E2) | ([CEc]2 ([CFA][B,DB]) ([B,EG][A,FA]) | %3
 ([B,DF][CE]) [B,DF]4) |!<(! ([DFB]2 [CFc]2 [B,Fd]2 | [B,G]2 [C^A]2 [B,FB]2 | %6
 ([Ec][DB]) (^A3!<)! B) |!ff! [B,DFB]2) z2 z2 |!p! ([B,GB]2 [B,EG]2 [A,DA]2 | %9
 ([GB][FA]) ([EG][DF]) [B,E]2) | ([CEc]2 ([CFA][B,DB]) ([B,EG][A,FA]) | ([B,DF][CE]) [B,DF]4) | %12
!<(! ([B,DF]2 [B,EG]2 [A,DA]2 | ([GB]3 [FA][EG][DF]) | ([EG][FA]) ([EG]2 P[DF]>!<)!E) | %15
!f! [G,B,E]4) z2 |!mf! ([B,EG]4 [A,DF]2 | [E,B,E]6) | ([E,C]2 [F,D]2 [G,B,E]2) | [B,DF]6 | %20
!p! z2 (E2 F2) | (D2 EF G2) | ([B,EG]4 [A,DF]2 | [E,B,E]6) | ([E,C]2 [F,D]2 [G,B,E]2) | [B,DF]6 | %26
!mf! ([DA]2 [EG]2 [A,DF]2 |!<(! [G,E]2 [F,F]2 ([B,G-]2 | GF) [G,B,E]2!<)! [F,B,]2 |!f! [G,B,E]6) | %30
!mp! [B,EG]2 z2 z2 | [F,B,F]2 z2 z2 | z2!<(! ([^A,E]4!<)! | [F,B,D]4) z2 |!pp! [B,EG]2 z2 z2 | %35
 [F,B,F]2 z2 z2 | z2!<(! ([^A,E]4!<)! | [F,B,D]6) |!mf! z2 ([EB]2 [Ac]2) | (B3 A G2) | %40
 ([B,EG]4 [A,DF]2 | (E3 F G2)) | ([E,C]2 [F,D]2 [G,B,E]2) | [B,DF]6 |!<(! [DA]2 [EG]2 [DF]2 | %45
 [G,E]2 [F,F]2 [B,G-]2 | C2 [G,B,]2 [F,B,]2!<)! |!f! [G,B,E]6 |!p! ([DA]2 [EG]2 [DF]2 | %49
!<(! [G,E]2 [F,F]2 ([B,G-]2 | GF) [G,B,E]2 [F,B,D]2!<)! | [G,B,E]6) |!f! ([B,GB]2 [B,EB]2 [CFA]2 | %53
!<(! (G3 F [B,E][A,D]) | E2- (E2 PD>E)!<)! |!ff! !fermata![G,B,E]6) || %56
!p!"^a tempo"!<(! ([B,D-G]4!<)! [^A,DF]2) | [G,B,E]6 |!mf!!<(! ([CE-^A]4!<)! [B,EG]2 | [^A,^^F]6) | %60
!<(! ([^^Fc]2 [GB]2 [F^A]2 | G3!<)! ^^F!>(! ([G,G-]2 | [^A,E]2 [B,D]2 [A,D^^F]2) | [B,DG]6)!>)! | %64
!pp!!<(! ([=A,E=A]4!<)! ([A,EA-]2 |!>(! A4!>)! G2)) |!<(! ([CE^A]4!<)! [CEA]2 | %67
 [B,G]2 [^A,^A]2 ([DB-]2 |!>(! B^A) [B,G]2 [^A,^^F]2 | [B,DG]6)!>)! ||!mf! z2 (B2 [=Ac]2) | %71
 (B3 A G2) | ([B,EG]4 [A,DF]2 | [E,B,G]6) | ([E,C]2 [F,D]2 [G,B,E]2) | [B,DF]6 | %76
!<(! ([DA]2 [EG]2 [DF]2 | [G,E]2 [F,F]2 ([B,G-]2 | GF) [G,B,E]2 [F,B,D]2!<)! |!f! [G,B,E]6) | %80
!mp! [B,EG]2 z2 z2 | [F,B,F]2 z2 z2 | z2!<(! ([^A,E]4!<)! |!>(! [F,B,D]4) z2!>)! | %84
!pp! [B,EG]2 z2 z2 | [F,B,F]2 z2 z2 | z2!<(! ([^A,E]4 | [F,B,D]6)!<)! |!mf! ([B,EG]4 [A,DF]2 | %89
 (E3 F G2)) | ([E,C]2 [F,D]2 [G,B,E]2) | [B,DF]6 |!<(! ([DA]2 [EG]2 [A,DF]2 | %93
 [G,E]2 [F,F]2 ([B,G-]2 | GF) [G,B,E]2 [F,B,D]2!<)! |!f! [B,EG]6) |!p! ([DA]2 [EG]2 [DF]2 | %97
 [G,E]2 [F,F]2 ([B,G-]2 |!<(! GF) [G,B,E]2 [F,B,D]2!<)! | [G,B,E]6) |!f! ([B,GB]2 [B,EG]2 [A,DA]2 | %101
 ([GB][FA]) ([EG][DF]) [B,E]2) | ([CEc]2 ([CFA][B,DB]) ([B,EG][A,FA]) | ([B,DF][CE]) [B,DF]4) | %104
!<(! ([B,DF]2 [B,EG]2 [A,DA]2 | ([GB]3 [FA] [EG][DF]) | ([EG][FA]) ([EG]2 P[DF]>E)!<)! | %107
!ff! [G,B,E]6) |] %108
V:3
 [E,,,E,,]4 [F,,,F,,]2 | [G,,,G,,]6 | [A,,,A,,]2 [F,,,F,,]2 [E,,,E,,]2 | [B,,,B,,]6 | %4
 [B,,,B,,]2 [^A,,,^A,,]2 [B,,,B,,]2 | [E,,,E,,]4 [D,,,D,,]2 | [E,,,E,,]2 [F,,,F,,]4 | %7
!>(! ([B,,,B,,]2 [B,,,B,,][=A,,,=A,,] [G,,,G,,]!>)![F,,,F,,]) | [E,,,E,,]4 [F,,,F,,]2 | %9
 [G,,,G,,]6 | [A,,,A,,]2 [F,,,F,,]2 [E,,,E,,]2 | [B,,,B,,]6 | [B,,,B,,]2 [E,,,E,,]2 [F,,,F,,]2 | %13
 [G,,,G,,]2 [D,,,D,,]2 [E,,,E,,]2 | [A,,,A,,]2 [B,,,B,,]2 [B,,,,B,,,]2 | [E,,,E,,]4 z2 | %16
 E,,4 F,,2 | G,,6 | A,,2 F,,2 E,,2 | B,,6 | B,4 C2 | B,6 | E,,4 F,,2 | G,,6 | A,,2 F,,2 E,,2 | %25
 B,,6 | B,,2 E,,2 F,,2 | G,,2 D,,2 ([E,,E,-]2 | E,F,) (B,,2 [B,,,B,,]2) | [E,,E,]6 | E,2 z2 z2 | %31
 D,2 z2 z2 | z2 C,4 | B,,2!>(! (B,,=A,,G,,!>)!F,,) | E,,2 z2 z2 | D,,2 z2 z2 | z2 C,,4 | B,,,6 | %38
 B,2 G,2 A,2 | B,6 | E,,4 F,,2 | (G,F,E,D, E,2) | A,,2 F,,2 E,,2 | B,,6 | B,,2 E,,2 F,,2 | %45
 G,,2 D,,2 ([E,,E,-]2 | E,F,) B,,2 [B,,,B,,]2 | [E,,E,]6 | B,,2 E,,2 F,,2 | G,,2 D,,2 ([E,,E,-]2 | %50
 E,F,) B,,2- [B,,,B,,]2 | [E,,E,]6 | [E,,,E,,]2 [G,,,G,,]2 [A,,,A,,]2 | %53
 ([B,,,B,,]3 [A,,,A,,][G,,,G,,][F,,,F,,]) | ([G,,,G,,][E,,,E,,]) [B,,,B,,]2 [B,,,,B,,,]2 | %55
 !fermata![E,,,E,,]6 || B,,6 | E,6 | C,6 | D,6 | D,2 G,,2 ^A,,2 | B,,2 D,2 E,2 | C,2 D,2 D,,2 | %63
 G,,6 | C,6 | B,,6 | ^A,,6 | B,,2 ^^F,,2 ([G,,G,-]2 | G,^A,) D,2 D,,2 | G,,6 || (B,2 G,2 =A,2 | %71
 B,A,G,F, E,2) | E,,4 F,,2 | G,,6 | A,,2 F,,2 E,,2 | B,,6 | B,,2 E,,2 F,,2 | G,,2 D,,2 ([E,,E,-]2 | %78
 E,F,) B,,2 B,,,2 | E,,6 | E,2 z2 z2 | D,2 z2 z2 | z2 C,4 | B,,2 (B,,=A,,G,,F,,) | E,,2 z2 z2 | %85
 D,2 z2 z2 | z2 C,,4 | B,,,6 | E,,4 F,,2 | (G,F,F,D, C,2) | A,,2 F,,2 E,,2 | B,,6 | %92
 B,,2 E,,2 F,,2 | G,,2 D,,2 ([E,,E,-]2 | E,F,) B,,2 B,,,2 | E,,6 | B,,2 E,,2 F,,2 | %97
 G,,2 D,,2 ([E,,E,-]2 | E,F,) B,,2- [B,,,B,,]2 | [E,,E,]6 | [E,,,E,,]4 [F,,,F,,]2 | [G,,,G,,]6 | %102
 [A,,,A,,]2 [F,,,F,,]2 [E,,,E,,]2 | [B,,,B,,]6 | [B,,,B,,]2 [E,,,E,,]2 [F,,,F,,]2 | %105
 [G,,,G,,]2 [D,,,D,,]2 [E,,,E,,]2 | [A,,,A,,]2 [B,,,B,,]2 [B,,,,B,,,]2 | [E,,,E,,]6 |] %108
V:4
 x6 | E2 B,2 B,2 | x6 | x6 | x6 | E4 x2 | G2 F2 E2 | x6 | x6 | E2 B,2 x2 | x6 | x6 | x6 | %13
 E2 B,2 B,2 | C2 B,3 A, | x6 | x6 | x6 | A,4 x2 | x6 | x6 | x2 E4 | x6 | x6 | A,4 x2 | x6 | %26
 B,4 x2 | B,4 x2 | C2 x4 | x6 | x6 | x6 | z2 (^A,2 E,2) | x6 | x6 | x6 | z2 (^A,2 E,2) | x6 | x6 | %39
 GFED E2 | x6 | B,6 | A,4 B,2 | x6 | B,4 A,2 | B,4 x2 | GF E2 D2 | x6 | B,4 A,2 | B,4 x2 | C2 x4 | %51
 x6 | x6 | [B,-E]2 [B,D]2 x2 | (B,-G,) [F,B,]4 | x6 || x6 | x6 | x6 | x6 | D4 C2 | %61
 [B,D-]2 [^A,D-]2 (DC) | G4 x2 | x6 | x6 | [B,D]6 | x6 | D4 x2 | E2 D4 | x6 || x2 E4 | GFED E2 | %72
 x6 | x6 | A,4 B,2 | x6 | B,4 A,2 | B,4 x2 | C2 x4 | x6 | x6 | x6 | x2 (^A,2 E,2) | x6 | x6 | x6 | %86
 z2 (^A,2 E,2) | x6 | x6 | B,6 | A,4 x2 | x6 | B,4 x2 | B,4 x2 | C2 x4 | x6 | B,4 A,2 | B,4 x2 | %98
 C2 x4 | x6 | x6 | E2 B,2 x2 | x6 | x6 | x6 | E2 B,2 B,2 | C2 B,3 A, | x6 |] %108
V:5
 x6 | x6 | x6 | x6 | x6 | x6 | x2 [CF]4 | x6 | x6 | x6 | x6 | x6 | x6 | x6 | x6 | x6 | x6 | x6 | %18
 x6 | x6 | x6 | x6 | x6 | x6 | x6 | x6 | x6 | x6 | x6 | x6 | x6 | x6 | x6 | x6 | x6 | x6 | x6 | %37
 x6 | x6 | x6 | x6 | x6 | x6 | x6 | x6 | x6 | x6 | x6 | x6 | x6 | x6 | x6 | x6 | x6 | x6 | x6 || %56
 x6 | x6 | x6 | x6 | x6 | x6 | x6 | x6 | x6 | x6 | x6 | x6 | x6 | x6 || x6 | x6 | x6 | x6 | x6 | %75
 x6 | x6 | x6 | x6 | x6 | x6 | x6 | x6 | x6 | x6 | x6 | x6 | x6 | x6 | x6 | x6 | x6 | x6 | x6 | %94
 x6 | x6 | x6 | x6 | x6 | x6 | x6 | x6 | x6 | x6 | x6 | x6 | x6 | x6 |] %108
V:6
 x6 | x6 | x6 | x6 | x6 | x6 | x6 | x6 | x6 | x6 | x6 | x6 | x6 | x6 | x6 | x6 | x6 | x6 | x6 | %19
 x6 | B,2 G,2 A,2 | B,A,G,F, E,2 | x6 | x6 | x6 | x6 | x6 | x6 | A,,2 x4 | x6 | x6 | x6 | x6 | x6 | %34
 x6 | x6 | x6 | x6 | x6 | B,A,G,F, E,2 | x6 | G,,6 | x6 | x6 | x6 | x6 | x6 | x6 | x6 | x6 | %50
 A,,2 x4 | x6 | x6 | x6 | x6 | x6 || x6 | x6 | x6 | x6 | x6 | x6 | x6 | x6 | x6 | x6 | x6 | x6 | %68
 C,2 x4 | x6 || x6 | B,6 | x6 | x6 | x6 | x6 | x6 | x6 | A,,2 x4 | x6 | x6 | x6 | x6 | x6 | x6 | %85
 x6 | x6 | x6 | x6 | G,,6 | x6 | x6 | x6 | x6 | A,,2 x4 | x6 | x6 | x6 | x6 | x6 | x6 | x6 | x6 | %103
 x6 | x6 | x6 | x6 | x6 |] %108

